X:8
T:South Shields Lasses
M:C|
L:1/8
S:Darcie's TrTuneSbk Vo.2 (1998) p. 41
R:hornpipe
Z: Wosika
K:G
|: d| "G"GFGA GBdB| "C"cBcd efge| "G"dBGB dBGB| "Amin"ABcA "D7"GFED|
"G"GFGA GBdB| "C"cBcd efge| "G"dBGB "D7"ecAF| "G"2 G2 G2::
 (d^c)| "D7"d^cde defd| "G"gfga bgdB| "Emin"efge "D7"fgaf| "Emin"gf"B7"e^d "Emin"e2 ef|
"G"gfgf gecA| "C"e^def gecA| "G"GBdg "D7"ecAF| "G"G2 G2 G2:|
